icone/marchio-navbar.svg

<svg width="114" height="39" viewBox="0 0 114 39" fill="none" xmlns="http://www.w3.org/2000/svg">
<path d="M8.96118 34.101C11.7256 37.0143 15.5659 38.6531 19.58 38.6448C27.509 38.6448 34.9331 32.7685 36.8864 31.1049C36.9691 31.0469 37.0519 30.9807 37.1264 30.9062C37.1346 30.898 37.1429 30.898 37.1429 30.898C38.9472 29.3254 42.0178 25.6754 42.3572 18.8969C42.6551 12.9543 40.2301 9.8258 37.8547 8.88227C36.5222 8.35257 35.1979 8.54293 34.4944 9.37887C34.1551 9.77614 33.5012 10.9018 34.6434 12.8219C36.1994 15.3049 35.7525 18.541 33.5757 20.5109C31.9949 18.4417 30.2816 16.4802 28.436 14.6345C22.2285 8.42706 14.6637 3.43628 12.2056 5.89443C12.1394 5.96064 12.0814 6.03513 12.0318 6.11789C12.0152 6.13445 11.9987 6.151 11.9821 6.16755C11.7835 6.39102 11.5269 6.70553 11.229 7.07798C10.0702 5.77028 8.52252 4.88468 6.80927 4.54534C5.11257 4.32188 3.4076 4.94262 2.24888 6.20066C0.378372 7.98012 -0.407902 10.6286 0.204564 13.1364C0.62667 14.8083 1.51226 16.3229 2.74547 17.523C3.4076 18.1769 4.14421 18.7562 4.93877 19.228C3.7966 24.045 4.27664 29.4247 8.96118 34.101ZM5.25328 10.2479C5.39398 9.94995 5.64227 9.7182 5.94851 9.61061C6.21336 9.53612 6.50304 9.56923 6.74306 9.70993C7.37208 10.0989 7.91833 10.6121 8.34044 11.2245C7.7197 12.2508 7.15689 13.3102 6.65202 14.3945C5.53468 13.4509 4.40079 11.8701 5.25328 10.2479ZM9.95437 33.0995C1.4626 24.6078 8.22457 13.3847 11.7007 8.7664C11.8166 9.28782 11.9821 9.80097 12.189 10.2976C13.4967 13.5254 16.766 17.9451 20.9374 22.1165L21.4092 22.58C25.6219 26.7017 30.8444 30.6 34.2958 31.3532C29.6775 34.8293 18.4461 41.5913 9.95437 33.0995ZM13.9354 10.7279C16.0459 10.7776 18.0158 11.7873 19.2986 13.4675C20.2587 14.7504 20.2504 16.356 20.2504 17.9037C20.2504 18.4003 20.2504 18.8969 20.2835 19.3935C17.784 16.8112 15.6487 13.8979 13.9354 10.7279ZM35.8518 12.0853C35.38 11.299 35.2724 10.6204 35.5621 10.281C36.0835 9.90857 36.7705 9.86718 37.325 10.1817C39.1541 10.91 41.1984 13.6082 40.9336 18.8142C40.6191 25.063 37.8299 28.3984 36.1994 29.822C36.1828 29.8303 36.1828 29.8468 36.1663 29.8634C36.158 29.8799 36.1249 29.8799 36.1166 29.8965C36.0835 29.913 36.0421 29.9379 36.009 29.9627C35.289 30.3352 33.4764 29.8468 30.9686 28.3736C33.1453 27.8687 35.1069 26.6686 36.5553 24.9554C36.7291 24.765 36.7788 24.4919 36.6877 24.2519C36.5967 24.0118 36.3898 23.8298 36.1332 23.7967C35.8766 23.7553 35.62 23.8629 35.4628 24.0615C33.8654 25.8906 31.6307 27.0328 29.214 27.2645C27.7656 26.2631 26.3668 25.1788 25.0426 24.0118C25.4067 24.0615 25.7792 24.0946 26.193 24.1194C28.916 24.376 31.6307 23.6477 33.8654 22.0751L33.8737 22.0669C37.0767 19.7908 37.9375 15.4125 35.8518 12.0853ZM27.4345 15.6194C29.2305 17.4154 30.9107 19.3273 32.4501 21.3468C30.5796 22.4227 28.4277 22.8945 26.2758 22.7124C24.3804 22.6131 23.1307 22.2241 22.4603 21.5289C21.6574 20.7012 21.6574 19.4101 21.6657 17.9037C21.6657 16.207 21.674 14.2786 20.4325 12.615C18.7358 10.43 16.0956 9.19678 13.3312 9.2961C12.8015 7.80632 13.0002 7.18557 13.116 6.98693L13.1326 6.95383C13.1491 6.92072 13.174 6.89589 13.1988 6.87106C14.3492 5.74545 20.3166 8.50982 27.4345 15.6194ZM3.73866 16.5298C2.68754 15.5118 1.94264 14.2289 1.57848 12.8136C1.09016 10.7776 1.72745 8.63397 3.25862 7.19385C4.11111 6.25032 5.36915 5.78683 6.63546 5.93581C8.10042 6.2586 9.40812 7.05315 10.3682 8.19531C9.98748 8.71674 9.57365 9.30438 9.14327 9.95823C8.6715 9.35404 8.09214 8.84916 7.43001 8.46844C6.85893 8.14566 6.18025 8.07117 5.55123 8.26153C4.88083 8.47672 4.3263 8.95676 4.02007 9.58578C2.80341 11.8701 4.17732 14.2869 6.08921 15.7353C5.81608 16.4057 5.56779 17.1009 5.35259 17.8127C4.75668 17.4485 4.22698 17.0181 3.73866 16.5298Z" fill="#F9F5F1"/>
<path d="M11.9658 24.1448C9.49113 26.6113 9.0442 30.1867 10.9644 32.1152C11.1961 32.3386 11.4527 32.5373 11.7341 32.6945C11.7424 32.7028 11.7589 32.7028 11.7672 32.7111C12.4624 33.1084 13.2487 33.307 14.0433 33.2987C15.8972 33.2325 17.6518 32.4462 18.9264 31.1054C21.4011 28.639 21.8481 25.0635 19.9279 23.1351C18.0077 21.2067 14.4323 21.6784 11.9658 24.1448ZM12.9673 25.1463C13.977 24.0703 15.3758 23.4248 16.849 23.3503C17.1718 23.3503 17.4946 23.3999 17.8091 23.4993C17.5939 23.9296 17.4615 24.4014 17.4118 24.8815C17.3622 25.9905 16.4683 26.8844 15.3592 26.934C13.6294 27.0747 12.2472 28.4487 12.1065 30.1867C12.0817 30.4764 12.0072 30.7578 11.8913 31.0227C10.6167 29.6239 11.0885 27.0168 12.9673 25.1463ZM17.9332 30.1205C16.4517 31.602 14.5316 32.2062 13.0914 31.7758C13.3066 31.3455 13.4473 30.8737 13.497 30.3854C13.5467 29.2763 14.4405 28.3824 15.5496 28.3328C17.2794 28.1921 18.6616 26.8182 18.8023 25.0801C18.8271 24.7904 18.9016 24.509 19.0175 24.2442C20.2838 25.6429 19.8203 28.2417 17.9332 30.1205Z" fill="#F9F5F1"/>
<path d="M30.969 7.14442C31.2422 7.21064 31.5153 7.25202 31.7967 7.25202C32.4009 7.26857 32.9885 7.04511 33.4272 6.63128C34.0231 5.96087 34.2217 5.02562 33.9403 4.17313C33.6672 3.21305 33.1458 2.33573 32.4257 1.6405C31.7305 0.920439 30.8532 0.399015 29.8931 0.125888C29.0406 -0.155516 28.1053 0.0431221 27.4349 0.639036C26.839 1.30944 26.6404 2.24469 26.9218 3.09718C27.1949 4.05726 27.7163 4.93458 28.4364 5.62981C29.1316 6.35815 30.0007 6.87957 30.969 7.14442ZM28.4364 1.6405C28.6102 1.49152 28.8337 1.41703 29.0654 1.43359C29.231 1.43359 29.3965 1.45842 29.562 1.4998C30.2738 1.70671 30.9194 2.10399 31.4408 2.64197C31.9788 3.15511 32.3761 3.80069 32.583 4.52075C32.7237 4.8932 32.674 5.3153 32.4423 5.63809C32.1195 5.86983 31.6974 5.92777 31.3249 5.77879C30.6131 5.57187 29.9676 5.1746 29.4461 4.63662C28.9082 4.12347 28.5109 3.4779 28.304 2.76612C28.1467 2.38539 28.1964 1.96329 28.4364 1.6405Z" fill="#F9F5F1"/>
<path d="M101.364 10.415C101.364 9.25884 101.579 8.24379 102.01 7.36992C102.453 6.49604 103.052 5.82383 103.804 5.35328C104.557 4.88274 105.398 4.64746 106.325 4.64746C107.118 4.64746 107.811 4.80879 108.402 5.13145C109.007 5.45412 109.471 5.87761 109.794 6.40193V4.80879H113.242V16.0616H109.794V14.4685C109.458 14.9928 108.987 15.4163 108.382 15.739C107.791 16.0616 107.098 16.2229 106.305 16.2229C105.391 16.2229 104.557 15.9877 103.804 15.5171C103.052 15.0331 102.453 14.3542 102.01 13.4803C101.579 12.593 101.364 11.5712 101.364 10.415ZM109.794 10.4352C109.794 9.57477 109.552 8.89584 109.068 8.3984C108.597 7.90097 108.019 7.65225 107.333 7.65225C106.648 7.65225 106.063 7.90097 105.579 8.3984C105.108 8.8824 104.873 9.55461 104.873 10.415C104.873 11.2755 105.108 11.9611 105.579 12.472C106.063 12.9694 106.648 13.2182 107.333 13.2182C108.019 13.2182 108.597 12.9694 109.068 12.472C109.552 11.9746 109.794 11.2956 109.794 10.4352Z" fill="#F9F5F1"/>
<path d="M95.9874 16.2229C95.006 16.2229 94.1321 16.0549 93.3658 15.7188C92.5995 15.3827 91.9945 14.9256 91.5508 14.3475C91.1072 13.7559 90.8585 13.0972 90.8047 12.3712H94.2128C94.2531 12.7611 94.4346 13.077 94.7573 13.319C95.08 13.561 95.4766 13.682 95.9471 13.682C96.3773 13.682 96.7067 13.6013 96.9353 13.44C97.1773 13.2652 97.2983 13.0434 97.2983 12.7745C97.2983 12.4518 97.1302 12.2166 96.7941 12.0687C96.458 11.9073 95.9135 11.7326 95.1606 11.5444C94.354 11.3561 93.6818 11.1612 93.144 10.9595C92.6062 10.7444 92.1424 10.415 91.7525 9.97138C91.3626 9.51427 91.1677 8.90256 91.1677 8.13624C91.1677 7.49092 91.3425 6.90609 91.692 6.38177C92.055 5.844 92.5793 5.4205 93.265 5.11129C93.9641 4.80207 94.7909 4.64746 95.7454 4.64746C97.1571 4.64746 98.2662 4.99701 99.0729 5.69611C99.893 6.39521 100.364 7.32287 100.485 8.47907H97.2983C97.2445 8.08919 97.0697 7.77997 96.7739 7.55142C96.4916 7.32287 96.1152 7.20859 95.6446 7.20859C95.2413 7.20859 94.9321 7.28925 94.717 7.45059C94.5019 7.59847 94.3943 7.80686 94.3943 8.07574C94.3943 8.3984 94.5623 8.6404 94.8985 8.80173C95.248 8.96306 95.7858 9.12439 96.5118 9.28572C97.3453 9.50083 98.0242 9.71594 98.5486 9.93105C99.0729 10.1327 99.53 10.4688 99.9199 10.9394C100.323 11.3965 100.532 12.0149 100.545 12.7947C100.545 13.4534 100.357 14.045 99.9804 14.5693C99.6174 15.0802 99.0863 15.4835 98.3872 15.7793C97.7016 16.0751 96.9016 16.2229 95.9874 16.2229Z" fill="#F9F5F1"/>
<path d="M89.5377 4.80859V16.0614H86.0892V14.5288C85.7397 15.0262 85.2624 15.4295 84.6574 15.7388C84.0659 16.0345 83.4071 16.1824 82.6811 16.1824C81.8207 16.1824 81.0611 15.9942 80.4023 15.6178C79.7436 15.2279 79.2327 14.6699 78.8697 13.944C78.5067 13.218 78.3252 12.3643 78.3252 11.3828V4.80859H81.7535V10.919C81.7535 11.6719 81.9484 12.2567 82.3383 12.6735C82.7282 13.0902 83.2525 13.2986 83.9113 13.2986C84.5835 13.2986 85.1145 13.0902 85.5044 12.6735C85.8943 12.2567 86.0892 11.6719 86.0892 10.919V4.80859H89.5377Z" fill="#F9F5F1"/>
<path d="M64.6582 10.415C64.6582 9.25884 64.8733 8.24379 65.3035 7.36992C65.7472 6.49604 66.3455 5.82383 67.0983 5.35328C67.8512 4.88274 68.6915 4.64746 69.6191 4.64746C70.4123 4.64746 71.1047 4.80879 71.6963 5.13145C72.3013 5.45412 72.7651 5.87761 73.0877 6.40193V4.80879H76.5362V16.0616H73.0877V14.4685C72.7516 14.9928 72.2811 15.4163 71.6761 15.739C71.0845 16.0616 70.3922 16.2229 69.599 16.2229C68.6848 16.2229 67.8512 15.9877 67.0983 15.5171C66.3455 15.0331 65.7472 14.3542 65.3035 13.4803C64.8733 12.593 64.6582 11.5712 64.6582 10.415ZM73.0877 10.4352C73.0877 9.57477 72.8457 8.89584 72.3618 8.3984C71.8912 7.90097 71.3131 7.65225 70.6274 7.65225C69.9418 7.65225 69.357 7.90097 68.873 8.3984C68.4024 8.8824 68.1671 9.55461 68.1671 10.415C68.1671 11.2755 68.4024 11.9611 68.873 12.472C69.357 12.9694 69.9418 13.2182 70.6274 13.2182C71.3131 13.2182 71.8912 12.9694 72.3618 12.472C72.8457 11.9746 73.0877 11.2956 73.0877 10.4352Z" fill="#F9F5F1"/>
<path d="M64.1542 6.46141C64.1542 7.2815 63.966 8.03438 63.5896 8.72004C63.2131 9.39225 62.635 9.93674 61.8553 10.3535C61.0755 10.7703 60.1075 10.9787 58.9513 10.9787H56.8137V16.0606H53.3652V1.90381H58.9513C60.0806 1.90381 61.0352 2.09875 61.8149 2.48863C62.5947 2.87852 63.1795 3.41628 63.5694 4.10194C63.9593 4.7876 64.1542 5.57409 64.1542 6.46141ZM58.6892 8.23604C59.3479 8.23604 59.8386 8.08144 60.1613 7.77222C60.484 7.463 60.6453 7.02606 60.6453 6.46141C60.6453 5.89675 60.484 5.45981 60.1613 5.15059C59.8386 4.84137 59.3479 4.68677 58.6892 4.68677H56.8137V8.23604H58.6892Z" fill="#F9F5F1"/>
<path d="M104.961 30.4185C104.961 30.7412 104.941 31.0773 104.901 31.4269H97.0962C97.15 32.126 97.3719 32.6637 97.7617 33.0402C98.1651 33.4032 98.6558 33.5847 99.2339 33.5847C100.094 33.5847 100.693 33.2217 101.029 32.4957H104.699C104.511 33.2351 104.168 33.9006 103.67 34.4921C103.186 35.0837 102.575 35.5475 101.835 35.8836C101.096 36.2197 100.269 36.3878 99.3549 36.3878C98.2525 36.3878 97.271 36.1525 96.4106 35.682C95.5502 35.2114 94.8779 34.5392 94.394 33.6653C93.91 32.7915 93.668 31.7697 93.668 30.6C93.668 29.4304 93.9032 28.4086 94.3738 27.5348C94.8578 26.6609 95.53 25.9887 96.3904 25.5181C97.2509 25.0476 98.239 24.8123 99.3549 24.8123C100.444 24.8123 101.412 25.0409 102.259 25.498C103.106 25.9551 103.765 26.6071 104.235 27.4541C104.719 28.3011 104.961 29.2892 104.961 30.4185ZM101.432 29.5111C101.432 28.9195 101.23 28.449 100.827 28.0994C100.424 27.7499 99.9195 27.5751 99.3145 27.5751C98.7364 27.5751 98.2457 27.7431 97.8424 28.0792C97.4525 28.4154 97.2105 28.8926 97.1164 29.5111H101.432ZM101.674 21.747V24.1266L96.8139 22.0898V19.4077L101.674 21.747Z" fill="#F9F5F1"/>
<path d="M93.3382 27.8367H91.4829V36.2259H88.0345V27.8367H86.7842V24.9731H88.0345V24.6505C88.0345 23.2657 88.4311 22.2171 89.2243 21.5045C90.0175 20.7785 91.1804 20.4155 92.7131 20.4155C92.9685 20.4155 93.1567 20.4222 93.2777 20.4357V23.3598C92.619 23.3195 92.1552 23.4136 91.8863 23.6421C91.6174 23.8707 91.4829 24.2807 91.4829 24.8723V24.9731H93.3382V27.8367Z" fill="#F9F5F1"/>
<path d="M86.85 27.8367H84.9947V36.2259H81.5462V27.8367H80.2959V24.9731H81.5462V24.6505C81.5462 23.2657 81.9428 22.2171 82.736 21.5045C83.5292 20.7785 84.6922 20.4155 86.2248 20.4155C86.4802 20.4155 86.6685 20.4222 86.7895 20.4357V23.3598C86.1307 23.3195 85.6669 23.4136 85.398 23.6421C85.1291 23.8707 84.9947 24.2807 84.9947 24.8723V24.9731H86.85V27.8367Z" fill="#F9F5F1"/>
<path d="M67.4355 30.5815C67.4355 29.4253 67.6507 28.4103 68.0809 27.5364C68.5245 26.6625 69.1228 25.9903 69.8757 25.5198C70.6286 25.0492 71.4688 24.814 72.3965 24.814C73.1897 24.814 73.8821 24.9753 74.4736 25.298C75.0786 25.6206 75.5424 26.0441 75.8651 26.5684V24.9753H79.3135V36.2281H75.8651V34.635C75.529 35.1593 75.0584 35.5828 74.4534 35.9055C73.8619 36.2281 73.1695 36.3895 72.3763 36.3895C71.4621 36.3895 70.6286 36.1542 69.8757 35.6836C69.1228 35.1996 68.5245 34.5207 68.0809 33.6468C67.6507 32.7595 67.4355 31.7377 67.4355 30.5815ZM75.8651 30.6017C75.8651 29.7413 75.6231 29.0623 75.1391 28.5649C74.6685 28.0675 74.0904 27.8188 73.4048 27.8188C72.7191 27.8188 72.1343 28.0675 71.6503 28.5649C71.1798 29.0489 70.9445 29.7211 70.9445 30.5815C70.9445 31.442 71.1798 32.1276 71.6503 32.6385C72.1343 33.1359 72.7191 33.3847 73.4048 33.3847C74.0904 33.3847 74.6685 33.1359 75.1391 32.6385C75.6231 32.1411 75.8651 31.4621 75.8651 30.6017Z" fill="#F9F5F1"/>
<path d="M52.7803 29.1287C52.7803 27.7305 53.0828 26.4869 53.6878 25.398C54.2928 24.2955 55.133 23.4418 56.2086 22.8368C57.2975 22.2184 58.5277 21.9092 59.899 21.9092C61.5795 21.9092 63.0181 22.3528 64.2146 23.2402C65.4111 24.1275 66.2111 25.3375 66.6144 26.8701H62.8231C62.5408 26.2786 62.1375 25.8282 61.6131 25.519C61.1023 25.2097 60.5174 25.0551 59.8587 25.0551C58.7966 25.0551 57.9361 25.4248 57.2774 26.1643C56.6186 26.9037 56.2892 27.8919 56.2892 29.1287C56.2892 30.3656 56.6186 31.3538 57.2774 32.0932C57.9361 32.8326 58.7966 33.2023 59.8587 33.2023C60.5174 33.2023 61.1023 33.0477 61.6131 32.7385C62.1375 32.4293 62.5408 31.9789 62.8231 31.3874H66.6144C66.2111 32.92 65.4111 34.13 64.2146 35.0173C63.0181 35.8912 61.5795 36.3281 59.899 36.3281C58.5277 36.3281 57.2975 36.0256 56.2086 35.4206C55.133 34.8022 54.2928 33.9485 53.6878 32.8595C53.0828 31.7705 52.7803 30.5269 52.7803 29.1287Z" fill="#F9F5F1"/>
</svg>

<svg xmlns="http://www.w3.org/2000/svg" width="114" height="39" fill="none" viewBox="0 0 114 39">
  <path fill="#F9F5F1" d="M8.961 34.101a14.6 14.6 0 0 0 10.619 4.544c7.929 0 15.353-5.876 17.306-7.54.083-.058.166-.124.24-.199q.015-.01.017-.008c1.804-1.573 4.875-5.223 5.214-12.001.298-5.943-2.127-9.071-4.502-10.015-1.333-.53-2.657-.34-3.36.497-.34.397-.994 1.523.148 3.443a6.04 6.04 0 0 1-1.067 7.689 59 59 0 0 0-5.14-5.876c-6.207-6.208-13.772-11.199-16.23-8.74q-.1.099-.174.223l-.05.05c-.198.223-.455.538-.753.91a7.96 7.96 0 0 0-4.42-2.533 5.27 5.27 0 0 0-4.56 1.656 7.22 7.22 0 0 0-2.044 6.935 9.3 9.3 0 0 0 2.54 4.387 11.5 11.5 0 0 0 2.194 1.705c-1.142 4.817-.662 10.197 4.022 14.873M5.253 10.248c.141-.298.39-.53.696-.637.264-.075.554-.042.794.099a5.4 5.4 0 0 1 1.597 1.515 33 33 0 0 0-1.688 3.17c-1.117-.944-2.251-2.525-1.399-4.147M9.954 33.1c-8.491-8.492-1.73-19.715 1.747-24.334q.176.785.488 1.532c1.308 3.227 4.577 7.647 8.748 11.818l.472.464c4.213 4.122 9.435 8.02 12.887 8.773-4.619 3.476-15.85 10.238-24.342 1.746m3.981-22.372a6.96 6.96 0 0 1 5.364 2.74c.96 1.282.951 2.888.951 4.436 0 .496 0 .993.034 1.49a39.4 39.4 0 0 1-6.349-8.666m21.917 1.357c-.472-.786-.58-1.465-.29-1.804a1.64 1.64 0 0 1 1.763-.1c1.83.729 3.873 3.427 3.609 8.633-.315 6.249-3.104 9.584-4.735 11.008-.016.008-.016.025-.033.041-.008.017-.041.017-.05.034a1 1 0 0 0-.107.066c-.72.372-2.533-.116-5.04-1.59a10.4 10.4 0 0 0 5.586-3.418.68.68 0 0 0 .133-.703.7.7 0 0 0-.555-.455.72.72 0 0 0-.67.264 9.5 9.5 0 0 1-6.249 3.204 45 45 0 0 1-4.171-3.253c.364.05.736.083 1.15.107a11.46 11.46 0 0 0 7.672-2.044l.009-.008c3.203-2.276 4.063-6.655 1.978-9.982m-8.417 3.534a57 57 0 0 1 5.015 5.728 10.6 10.6 0 0 1-6.174 1.365c-1.896-.099-3.145-.488-3.816-1.183-.803-.828-.803-2.119-.794-3.625 0-1.697.008-3.625-1.233-5.289a8.6 8.6 0 0 0-7.102-3.319c-.53-1.49-.33-2.11-.215-2.31l.017-.032c.016-.033.041-.058.066-.083 1.15-1.126 7.118 1.639 14.236 8.748m-23.696.91a7.9 7.9 0 0 1-2.16-3.715 5.84 5.84 0 0 1 1.68-5.62 3.92 3.92 0 0 1 3.376-1.258 6.78 6.78 0 0 1 3.733 2.26c-.38.52-.794 1.108-1.225 1.762a5.9 5.9 0 0 0-1.713-1.49 2.4 2.4 0 0 0-1.879-.206 2.58 2.58 0 0 0-1.53 1.324c-1.218 2.284.156 4.7 2.068 6.15-.273.67-.521 1.365-.736 2.077a8.7 8.7 0 0 1-1.614-1.283"/>
  <path fill="#F9F5F1" d="M11.966 24.145c-2.475 2.466-2.922 6.042-1.002 7.97.232.224.489.422.77.58.008.008.025.008.033.016a4.5 4.5 0 0 0 2.276.588 7.1 7.1 0 0 0 4.883-2.194c2.475-2.466 2.922-6.041 1.002-7.97s-5.496-1.457-7.962 1.01m1.001 1.001a5.73 5.73 0 0 1 3.882-1.796c.323 0 .646.05.96.15-.215.43-.348.901-.397 1.381a2.155 2.155 0 0 1-2.053 2.053 3.55 3.55 0 0 0-3.252 3.253c-.025.29-.1.57-.216.836-1.274-1.4-.803-4.006 1.076-5.877m4.966 4.974c-1.481 1.482-3.401 2.086-4.842 1.656.216-.43.356-.902.406-1.39a2.156 2.156 0 0 1 2.053-2.053 3.55 3.55 0 0 0 3.252-3.253c.025-.29.1-.571.215-.836 1.267 1.399.803 3.998-1.084 5.877M30.969 7.144c.273.067.546.108.828.108a2.3 2.3 0 0 0 1.63-.62 2.51 2.51 0 0 0 .513-2.459 5.7 5.7 0 0 0-1.514-2.532A5.7 5.7 0 0 0 29.893.126a2.51 2.51 0 0 0-2.458.513 2.51 2.51 0 0 0-.513 2.458c.273.96.794 1.838 1.514 2.533a5.5 5.5 0 0 0 2.533 1.514m-2.533-5.503a.87.87 0 0 1 .63-.207q.247.002.496.066a4.3 4.3 0 0 1 1.879 1.142 4.2 4.2 0 0 1 1.142 1.879c.14.372.091.794-.14 1.117-.323.232-.746.29-1.118.14a4.3 4.3 0 0 1-1.879-1.141 4.2 4.2 0 0 1-1.142-1.87 1.14 1.14 0 0 1 .132-1.126m72.928 8.774q0-1.734.646-3.045.665-1.31 1.794-2.017a4.66 4.66 0 0 1 2.521-.706q1.19 0 2.077.484.908.485 1.392 1.27V4.81h3.448v11.253h-3.448v-1.594q-.504.787-1.412 1.271-.887.484-2.077.484a4.63 4.63 0 0 1-2.501-.706q-1.129-.726-1.794-2.037-.646-1.33-.646-3.065m8.43.02q0-1.29-.726-2.037a2.3 2.3 0 0 0-1.735-.746q-1.028 0-1.754.746-.706.727-.706 2.017t.706 2.057a2.36 2.36 0 0 0 1.754.746q1.029 0 1.735-.746.726-.746.726-2.037m-13.807 5.787q-1.472 0-2.621-.504t-1.815-1.371a3.7 3.7 0 0 1-.746-1.977h3.408q.06.585.544.948t1.19.363q.645 0 .988-.242.363-.263.363-.665 0-.484-.504-.706-.504-.242-1.633-.525a17 17 0 0 1-2.017-.585 3.6 3.6 0 0 1-1.392-.988q-.585-.685-.584-1.835 0-.968.524-1.754.544-.807 1.573-1.27 1.05-.465 2.48-.465 2.118 0 3.328 1.05 1.23 1.047 1.412 2.782h-3.187q-.08-.585-.524-.928-.423-.342-1.13-.342-.605 0-.927.242a.72.72 0 0 0-.323.625q0 .483.504.726.525.241 1.614.484 1.25.322 2.037.645.786.303 1.37 1.008.606.686.626 1.856 0 .988-.565 1.774-.544.766-1.593 1.21-1.028.444-2.4.444M89.538 4.809V16.06h-3.449v-1.53q-.525.745-1.432 1.21a4.36 4.36 0 0 1-1.976.443q-1.29 0-2.279-.564-.988-.585-1.532-1.674-.545-1.09-.545-2.561V4.809h3.428v6.11q0 1.13.585 1.755.586.624 1.573.625 1.009 0 1.593-.625.585-.626.585-1.755v-6.11zm-24.88 5.606q0-1.734.645-3.045.667-1.31 1.795-2.017a4.66 4.66 0 0 1 2.521-.706q1.19 0 2.077.484.908.485 1.392 1.27V4.81h3.448v11.253h-3.448v-1.594q-.504.787-1.412 1.271-.887.484-2.077.484a4.6 4.6 0 0 1-2.5-.706q-1.13-.726-1.796-2.037-.645-1.33-.645-3.065m8.43.02q0-1.29-.726-2.037a2.3 2.3 0 0 0-1.735-.746q-1.028 0-1.754.746-.706.727-.706 2.017t.706 2.057a2.36 2.36 0 0 0 1.754.746q1.029 0 1.735-.746.726-.746.726-2.037m-8.934-3.975q0 1.23-.564 2.259-.565 1.008-1.735 1.633-1.17.626-2.904.626h-2.137v5.082h-3.449V1.904h5.586q1.695 0 2.864.585 1.17.584 1.754 1.613t.585 2.36M58.69 8.236q.989 0 1.472-.464.484-.464.484-1.31 0-.848-.484-1.311-.483-.464-1.472-.464h-1.875v3.549zm46.271 22.183q0 .483-.06 1.008h-7.805q.081 1.049.666 1.613.605.545 1.472.545 1.29 0 1.795-1.09h3.67a4.96 4.96 0 0 1-1.029 1.997 5 5 0 0 1-1.835 1.392q-1.109.504-2.48.504-1.654 0-2.944-.706a5 5 0 0 1-2.017-2.017q-.726-1.31-.726-3.065t.706-3.065a5 5 0 0 1 2.016-2.017q1.29-.706 2.965-.706 1.634 0 2.904.686a4.85 4.85 0 0 1 1.976 1.956q.726 1.27.726 2.965m-3.529-.908q0-.887-.605-1.412-.604-.525-1.513-.524-.866 0-1.472.504-.585.504-.726 1.432zm.242-7.764v2.38l-4.86-2.037v-2.682zm-8.336 6.09h-1.855v8.389h-3.449v-8.39h-1.25v-2.863h1.25v-.322q0-2.078 1.19-3.146 1.19-1.09 3.49-1.09.382 0 .564.02v2.925q-.989-.06-1.392.282-.403.343-.403 1.23v.101h1.855z"/>
  <path fill="#F9F5F1" d="M86.85 27.837h-1.855v8.389h-3.449v-8.39h-1.25v-2.863h1.25v-.322q0-2.078 1.19-3.146 1.19-1.09 3.489-1.09.383 0 .565.02v2.925q-.99-.06-1.392.282-.403.343-.403 1.23v.101h1.855zm-19.414 2.745q0-1.735.645-3.046.666-1.31 1.795-2.016a4.66 4.66 0 0 1 2.52-.706q1.19 0 2.078.484.907.484 1.391 1.27v-1.593h3.449v11.253h-3.449v-1.593q-.504.787-1.412 1.27-.887.484-2.077.484a4.6 4.6 0 0 1-2.5-.705q-1.13-.726-1.795-2.037-.645-1.332-.645-3.065m8.43.02q0-1.29-.727-2.037a2.3 2.3 0 0 0-1.734-.746q-1.028 0-1.755.746-.706.726-.706 2.016t.706 2.058a2.36 2.36 0 0 0 1.755.746q1.028-.001 1.734-.746.726-.747.726-2.037M52.78 29.129q0-2.098.908-3.731a6.4 6.4 0 0 1 2.52-2.561q1.635-.928 3.691-.928 2.521 0 4.316 1.331 1.794 1.332 2.4 3.63h-3.792q-.423-.887-1.21-1.351-.766-.465-1.754-.464-1.593 0-2.582 1.11-.987 1.109-.988 2.964 0 1.855.988 2.964.99 1.11 2.582 1.11.987 0 1.754-.465.787-.464 1.21-1.35h3.791q-.605 2.298-2.4 3.63-1.794 1.31-4.315 1.31-2.057 0-3.69-.907a6.6 6.6 0 0 1-2.521-2.562q-.908-1.633-.908-3.73"/>
</svg>
